src/icons/svg/arrow-to-left.svg

<svg width="30px" height="26.3461538px" viewBox="0 0 30 26.3461538" version="1.1" xmlns="http://www.w3.org/2000/svg">
    <path d="M11.1,10.5534309 L29.1,10.5534309 C29.2656854,10.5534309 29.4,10.4193903 29.4,10.2540428 L29.4,8.15832605 C29.4,7.99297856 29.2656854,7.85893794 29.1,7.85893794 L11.1,7.85893794 C10.9343146,7.85893794 10.8,7.99297856 10.8,8.15832605 L10.8,10.2540428 C10.8,10.4193903 10.9343146,10.5534309 11.1,10.5534309 Z M10.8,18.1878278 C10.8,18.3531753 10.9343146,18.4872159 11.1,18.4872159 L29.1,18.4872159 C29.2656854,18.4872159 29.4,18.3531753 29.4,18.1878278 L29.4,16.092111 C29.4,15.9267635 29.2656854,15.7927229 29.1,15.7927229 L11.1,15.7927229 C10.9343146,15.7927229 10.8,15.9267635 10.8,16.092111 L10.8,18.1878278 Z M29.7,0 L0.3,0 C0.134314575,0 0,0.134040623 0,0.299388112 L0,2.3951049 C0,2.56045238 0.134314575,2.69449301 0.3,2.69449301 L29.7,2.69449301 C29.8656854,2.69449301 30,2.56045238 30,2.3951049 L30,0.299388112 C30,0.134040623 29.8656854,0 29.7,0 Z M29.7,23.6516608 L0.3,23.6516608 C0.134314575,23.6516608 0,23.7857015 0,23.951049 L0,26.0467657 C0,26.2121132 0.134314575,26.3461538 0.3,26.3461538 L29.7,26.3461538 C29.8656854,26.3461538 30,26.2121132 30,26.0467657 L30,23.951049 C30,23.7857015 29.8656854,23.6516608 29.7,23.6516608 Z M1.14,18.0418761 L7.00125,13.4350415 C7.0817391,13.3726549 7.12882814,13.2766545 7.12882814,13.1749481 C7.12882814,13.0732417 7.0817391,12.9772413 7.00125,12.9148547 L1.14,8.30427775 C1.04005746,8.22586751 0.904157336,8.21092968 0.789510177,8.26575273 C0.674863019,8.32057578 0.601381695,8.43563758 0.599999983,8.5625 L0.599999983,17.7799115 C0.599999983,17.907449 0.672899333,18.0238118 0.787836917,18.0795703 C0.902774501,18.1353287 1.03952561,18.1206914 1.14,18.0418761 Z"
          id="形状"></path>
</svg>

<svg width="30" height="26.346" xmlns="http://www.w3.org/2000/svg"><path d="M11.1 10.553h18a.3.3 0 0 0 .3-.299V8.158a.3.3 0 0 0-.3-.3h-18a.3.3 0 0 0-.3.3v2.096a.3.3 0 0 0 .3.3zm-.3 7.635a.3.3 0 0 0 .3.3h18a.3.3 0 0 0 .3-.3v-2.096a.3.3 0 0 0-.3-.3h-18a.3.3 0 0 0-.3.3v2.096zM29.7 0H.3a.3.3 0 0 0-.3.3v2.095a.3.3 0 0 0 .3.3h29.4a.3.3 0 0 0 .3-.3V.3A.3.3 0 0 0 29.7 0zm0 23.652H.3a.3.3 0 0 0-.3.299v2.096a.3.3 0 0 0 .3.3h29.4a.3.3 0 0 0 .3-.3V23.95a.3.3 0 0 0-.3-.3zm-28.56-5.61l5.861-4.607a.33.33 0 0 0 0-.52L1.14 8.305a.334.334 0 0 0-.54.258v9.217a.333.333 0 0 0 .54.262z"/></svg>
